packages/ffe-icons/icons/filled/md/home_health.svg

<svg xmlns="http://www.w3.org/2000/svg" height="24" viewBox="0 -960 960 960" width="24"><path d="M430.001-390.001V-340q0 20.833 14.57 35.416 14.57 14.583 35.384 14.583t35.429-14.583q14.615-14.583 14.615-35.416v-50.001H580q20.833 0 35.416-14.57 14.583-14.57 14.583-35.384t-14.583-35.429Q600.833-489.999 580-489.999h-50.001V-540q0-20.833-14.57-35.416-14.57-14.583-35.384-14.583t-35.429 14.583Q430.001-560.833 430.001-540v50.001H380q-20.833 0-35.416 14.57-14.583 14.57-14.583 35.384t14.583 35.429q14.583 14.615 35.416 14.615h50.001Zm-177.692 250q-29.827 0-51.067-21.241-21.241-21.24-21.241-51.067v-341.537q0-17.173 7.683-32.538 7.683-15.365 21.24-25.307l227.692-171.154q18.953-14.461 43.322-14.461 24.369 0 43.446 14.461l227.692 171.154q13.557 9.942 21.24 25.307 7.683 15.365 7.683 32.538v341.537q0 29.827-21.241 51.067-21.24 21.241-51.067 21.241H252.309Z"/></svg>

<svg xmlns="http://www.w3.org/2000/svg" height="24" viewBox="0 -960 960 960" width="24"><path d="M430-390v50q0 20.83 14.57 35.42Q459.14-290 479.95-290q20.82 0 35.43-14.58Q530-319.17 530-340v-50h50q20.83 0 35.42-14.57Q630-419.14 630-439.95q0-20.82-14.58-35.43Q600.83-490 580-490h-50v-50q0-20.83-14.57-35.42Q500.86-590 480.05-590q-20.82 0-35.43 14.58Q430-560.83 430-540v50h-50q-20.83 0-35.42 14.57Q330-460.86 330-440.05q0 20.82 14.58 35.43Q359.17-390 380-390h50ZM252.31-140q-29.83 0-51.07-21.24Q180-182.48 180-212.31v-341.54q0-17.17 7.68-32.53 7.69-15.37 21.24-25.31l227.7-171.15q18.95-14.47 43.32-14.47t43.44 14.47l227.7 171.15q13.55 9.94 21.24 25.31 7.68 15.36 7.68 32.53v341.54q0 29.83-21.24 51.07Q737.52-140 707.69-140H252.31Z"/></svg>
